!!!SOCIAL_FUNCTION:	songs of the woman's dance
!!!PDT:	1922
!!!OTL: No_38_Woman's_Dance_Song_(c).krn
!!!REG: Southwest
!!!LANG: Non-Tone
!!!LING_GROUP: Uto-Aztecan
**kern	**kern
*staff2	*staff1
*clefF4	*clefF4
*k[f#c#g#d#a#]	*k[f#c#g#d#a#]
*M3/4	*M3/4
4r	8.d#\L
.	16B\Jk
=1	=1
12GG#^/	2d#\
12r	.
12GG#/	.
12GG#^/	.
12r	.
12GG#/	.
12GG#^/	8.B\L
12r	.
12GG#/	.
.	16G#\Jk
=2	=2
2.r	2B\
.	8.G#\L
.	16D#\Jk
=3	=3
2.r	2G#\
.	8.F#\L
.	16D#\Jk
=4	=4
2.r	2D#\
.	8.G#\L
.	16D#\Jk
=5	=5
2.r	2G#\
.	8.F#\L
.	16D#\Jk
=6	=6
2.r	2D#\
.	8.D#/L
.	16BB/Jk
=7||	=7||
*M2/4	*M2/4
2r	2D#\
=8||	=8||
*M3/4	*M3/4
2.r	12D#\L
.	12D#\
.	12BB\J
.	12D#\L
.	12D#\
.	12BB\J
.	12D#\L
.	12D#\
.	12BB\J
=9||	=9||
*M2/4	*M2/4
2r	2D#\
==:|!	==:|!
*-	*-
